packages/ui/assets/svg/twitter.svg

<svg class="socials-size" width="24" height="20" viewBox="0 0 24 20" fill="none" xmlns="http://www.w3.org/2000/svg">
<path class="fill" d="M24 2.55705C23.117 2.94905 22.168 3.21305 21.172 3.33205C22.189 2.72305 22.97 1.75805 23.337 0.608047C22.386 1.17205 21.332 1.58205 20.21 1.80305C19.313 0.846047 18.032 0.248047 16.616 0.248047C13.437 0.248047 11.101 3.21405 11.819 6.29305C7.728 6.08805 4.1 4.12805 1.671 1.14905C0.381 3.36205 1.002 6.25705 3.194 7.72305C2.388 7.69705 1.628 7.47605 0.965 7.10705C0.911 9.38805 2.546 11.522 4.914 11.997C4.221 12.185 3.462 12.229 2.69 12.081C3.316 14.037 5.134 15.46 7.29 15.5C5.22 17.123 2.612 17.848 0 17.54C2.179 18.937 4.768 19.752 7.548 19.752C16.69 19.752 21.855 12.031 21.543 5.10605C22.505 4.41105 23.34 3.54405 24 2.55705Z" fill="#112338"/>
</svg>

<svg class="socials-size" width="24" height="20" viewBox="0 0 24 20" fill="none" xmlns="http://www.w3.org/2000/svg"><path class="fill" d="M24 2.557a9.83 9.83 0 0 1-2.828.775A4.932 4.932 0 0 0 23.337.608a9.864 9.864 0 0 1-3.127 1.195A4.916 4.916 0 0 0 16.616.248c-3.179 0-5.515 2.966-4.797 6.045A13.978 13.978 0 0 1 1.671 1.149a4.93 4.93 0 0 0 1.523 6.574 4.903 4.903 0 0 1-2.229-.616c-.054 2.281 1.581 4.415 3.949 4.89a4.935 4.935 0 0 1-2.224.084 4.928 4.928 0 0 0 4.6 3.419A9.9 9.9 0 0 1 0 17.54a13.94 13.94 0 0 0 7.548 2.212c9.142 0 14.307-7.721 13.995-14.646A10.025 10.025 0 0 0 24 2.557Z" fill="#112338"/></svg>
